svgs/hago.svg

<svg width="192" height="192" viewBox="0 0 192 192" fill="none" xmlns="http://www.w3.org/2000/svg"><path fill-rule="evenodd" clip-rule="evenodd" d="M48 22a6 6 0 0 0-12 0v10H26a6 6 0 0 0 0 12h10v10a6 6 0 0 0 12 0V44h10a6 6 0 0 0 0-12H48V22Zm102 6c-5.523 0-10 4.477-10 10s4.477 10 10 10 10-4.477 10-10-4.477-10-10-10Zm-22 10c0-12.15 9.85-22 22-22s22 9.85 22 22-9.85 22-22 22-22-9.85-22-22ZM30.136 93.722C30.626 86.049 38.071 80 47.898 80h96.204c9.827 0 17.272 6.05 17.762 13.722.09 1.413.136 2.84.136 4.278 0 36.451-29.549 66-66 66-36.45 0-66-29.549-66-66 0-1.438.046-2.865.136-4.278ZM47.898 68C33.99 68 19.184 76.943 18.16 92.957A79.153 79.153 0 0 0 18 98c0 43.078 34.922 78 78 78s78-34.922 78-78c0-1.694-.054-3.375-.161-5.043C172.816 76.943 158.009 68 144.102 68H47.898Z" fill="#000"/></svg>

<?xml version="1.0" encoding="UTF-8" standalone="no"?><svg xmlns:android="http://schemas.android.com/apk/res/android" height="192" width="192" xmlns="http://www.w3.org/2000/svg">
  <path d="M48,22C48,18.686 45.314,16 42,16C38.686,16 36,18.686 36,22V32H26C22.686,32 20,34.686 20,38C20,41.314 22.686,44 26,44H36V54C36,57.314 38.686,60 42,60C45.314,60 48,57.314 48,54V44H58C61.314,44 64,41.314 64,38C64,34.686 61.314,32 58,32H48V22ZM150,28C144.477,28 140,32.477 140,38C140,43.523 144.477,48 150,48C155.523,48 160,43.523 160,38C160,32.477 155.523,28 150,28ZM128,38C128,25.85 137.85,16 150,16C162.15,16 172,25.85 172,38C172,50.15 162.15,60 150,60C137.85,60 128,50.15 128,38ZM30.136,93.722C30.626,86.049 38.071,80 47.898,80H96H144.102C153.929,80 161.374,86.049 161.864,93.722C161.954,95.135 162,96.562 162,98C162,134.451 132.451,164 96,164C59.549,164 30,134.451 30,98C30,96.562 30.046,95.135 30.136,93.722ZM47.898,68C33.991,68 19.184,76.943 18.161,92.957C18.054,94.625 18,96.307 18,98C18,141.078 52.922,176 96,176C139.078,176 174,141.078 174,98C174,96.307 173.946,94.625 173.839,92.957C172.816,76.943 158.009,68 144.102,68H96H47.898Z" fill="#000000" fill-rule="evenOdd"/>
</svg>
